X:1
T: The Blooms of Bon Accord
C:
R:Reel
I:speed 232
K:A
M:4/4
L:1/8
E2|c2z2 c4|BA Bc A2E2|d2z2 d4|cB cd B2E2|e2z2 =f4|g3f d2B2|AE ^DE c2B2|B4 A2E2|
c2z2 c4|BA Bc A2E2|d2z2 d4|cB cd B2E2|e2z2 =f4|g3f d2B2|AE^DE c2B2|B4 A2GA|
B2E2 e4|d2c2 B4|c3c B2c2|B2A2 G2A2|B2E2 e4|d2c2 B4|c2^de f2d2|e2z2 d4|
c2z2 c4|BA Bc A2E2|d2z2 d4|cB cd B2E2|e2z2 =f4|g3f d2B2|AE^DE c2B2|B4 A2||
